X:410
T: Redhaired Molly
T: Mall Rua
S: B.Breathnach: "Ceol Rince na hEireann" II/93
Z: B.Black
L: 1/8
M: 9/8
R: slipjig
K: D
A|Add dcd efg|Add def g3|
Add dcd efg|aba gec d2 :|
a|aba ged cde|aba gef g3|
aba ged cde|faa gfe d2 :|

